X: 1
T: Gan Ainm
M: 4/4
L: 1/8
R: reel
K: Gmaj
B|dB~B2 dege|dBGB cBAG|F2DE FGAB|cBAG ~E3G|
EB,EF GAGF|EC~C2 EGED|EFGA (3Bcd ed|1 BcBA ~G3:|2 Bdef ~g3||
|:a|bg~g2 dgga|bgag fdAG|FDDE FGAB|cBcd e2eg|
eBef gagf|ec~c2 BdAG|EFGA (3Bcd ed|1 Bdef ~g3:|2 BcBA ~G3||
